X: 10011
Q: "Jig time."
M: 6/8
L: 1/8
K: D
f/e/ |\
d2A (B/c/d)A | ({c}Td3) A2B | =cdc cGE | =c3 E2^c |\
d2A dfe | ({c}d3) A2G | FDF E>FE | D3- D2 :|
|: f/e/ |\
d2g faf | d3 A2B | =c>dc cGE | T=c3{Bc} E2^c |\
d2A dfd | ({c}d3) A2G | FDF EFE | D3- D2 :|
f/g/ |\
abg fdf | a3 g2f | g>ag e=ce | g3 {fg}efg |\
aba fdf | a3 g3{fg} | fdf ece | ({c}d3)- d2 f/g/ |
aba fdf | aba fdf | gag e=ce | gag e=ce |\
aba fdf | aba gab | fga gec | ({c}d3)- d2 |]


